assets/img/partners/React-Vienna.svg

<?xml version="1.0" encoding="UTF-8"?>
<svg width="500px" height="500px" viewBox="0 0 500 500" version="1.1" xmlns="http://www.w3.org/2000/svg" xmlns:xlink="http://www.w3.org/1999/xlink">
    <!-- Generator: Sketch 43.2 (39069) - http://www.bohemiancoding.com/sketch -->
    <title>React-Vienna</title>
    <desc>Created with Sketch.</desc>
    <defs></defs>
    <g id="Export" stroke="none" stroke-width="1" fill="none" fill-rule="evenodd">
        <g id="React-Vienna">
            <g id="React-Vienna-Logo" transform="translate(52.000000, 74.000000)">
                <g id="ReactJS-Vienna">
                    <path d="M198.077615,112.91018 C243.783782,112.91018 287.201972,119.348979 320.210352,130.703527 C356.869903,143.313844 379.231606,161.957945 379.231606,176.323353 C379.231606,191.625318 355.081526,211.490929 315.868727,224.472955 C284.65092,234.807992 242.883259,240.441118 198.077615,240.441118 C151.008158,240.441118 108.76937,234.917758 77.9137408,224.379277 C58.5966464,217.781914 42.644076,209.208058 31.7097457,199.851565 C21.8842005,191.443859 16.9236234,183.096341 16.9236234,176.323353 C16.9236234,161.909625 38.4297025,143.524489 74.2986266,131.02878 C107.320814,119.525661 151.801693,112.91018 198.077615,112.91018 L198.077615,112.91018 Z M198.077615,96 C150.003874,96 103.659998,102.892558 68.7273334,115.061183 C26.7853279,129.67258 0,152.570845 0,176.323353 C0,200.855419 28.7545313,225.460636 72.4400455,240.38054 C105.276921,251.595699 149.291707,257.351297 198.077615,257.351297 C244.572578,257.351297 288.097361,251.481192 321.191434,240.524994 C366.606706,225.489539 396.155229,201.183224 396.155229,176.323353 C396.155229,152.484986 368.505808,129.432243 325.719187,114.714308 C290.828663,102.712322 245.566052,96 198.077615,96 L198.077615,96 Z" id="Shape-Copy-3" fill="#607096" fill-rule="nonzero"></path>
                    <path d="M143.258231,144.25531 C166.091479,104.69348 193.364327,70.3279413 219.698368,47.4284857 C248.945223,21.9965239 276.280202,11.9545815 288.73443,19.1308782 C302.000763,26.7750462 307.15905,57.6039245 298.8241,98.0305031 C292.188274,130.21539 276.206046,169.183031 253.822695,207.966031 C230.308137,248.708768 204.418659,282.510053 179.867031,303.953775 C164.497068,317.378611 149.094513,326.903544 135.520316,331.693762 C123.322661,335.998209 113.607409,336.121746 107.73513,332.738093 C95.2392236,325.537244 90.0440783,297.737705 97.1301524,260.447702 C103.653495,226.118493 120.139301,184.312469 143.258247,144.255282 L143.258231,144.25531 Z M128.597769,135.807447 C104.58066,177.420843 87.4043364,220.977935 80.5035857,257.293263 C72.2177994,300.896674 78.6882518,335.520459 99.2805752,347.386922 C120.549761,359.642394 156.246229,347.045418 191.004993,316.685506 C217.133028,293.86493 244.111116,258.642356 268.483192,216.41383 C291.710449,176.168619 308.365004,135.561721 315.399634,101.442564 C325.053014,54.6212796 318.741634,16.9008586 297.188749,4.48191338 C276.521932,-7.42659042 242.723415,4.98983575 208.588392,34.6723637 C180.752767,58.8775617 152.32139,94.7029204 128.597785,135.80742 L128.597769,135.807447 Z" id="Shape-Copy-2" fill="#607096" fill-rule="nonzero"></path>
                    <path d="M143.219674,208.673992 C120.320544,169.150028 104.144167,128.377836 97.440869,94.144839 C89.9959583,56.1256635 94.9406861,27.4469528 107.383027,20.2498621 C120.636632,12.5830476 149.943186,23.5140694 180.831851,50.9191811 C205.424115,72.7369734 231.228848,106.032711 253.677683,144.779142 C277.260381,185.482296 293.638733,224.775327 299.970592,256.738537 C303.934683,276.748535 304.501049,294.839074 301.875234,308.98217 C299.515705,321.690999 294.770845,330.16279 288.904292,333.556284 C276.41989,340.777927 249.721224,331.391786 220.927977,306.634173 C194.421038,283.842505 166.405933,248.692346 143.219619,208.673897 L143.219674,208.673992 Z M128.573362,217.146324 C152.660394,258.719367 181.848835,295.341693 209.889254,319.451906 C243.557461,348.401211 276.810288,360.091521 297.383235,348.191033 C318.631634,335.899947 325.53684,298.707317 316.5721,253.454969 C309.833681,219.439449 292.766667,178.494258 268.324005,136.306827 C245.028815,96.0995964 218.138493,61.4031298 192.068352,38.2741922 C156.293809,6.53422067 120.435885,-6.84038998 98.9040586,5.61512776 C78.2569227,17.5581627 72.1429465,53.0183463 80.832178,97.3919366 C87.9176902,133.576859 104.781238,176.081048 128.573307,217.146229 L128.573362,217.146324 Z" id="Shape-Copy" fill="#607096" fill-rule="nonzero"></path>
                    <path d="M208.079799,129 L237.986821,129 C237.942639,131.449153 237.672316,144.928397 236.884019,157.214215 L208.079799,157.214215 L208.079799,129 Z M188.907409,157.214215 L160.103577,157.214215 C159.315474,144.928397 159.044569,131.449153 159,129 L188.907409,129 L188.907409,157.214215 Z M234.828402,175.679414 C232.462737,187.957879 227.553129,201.265693 221.871502,210.386264 C218.449737,215.878768 213.548074,221.609067 208.079993,225.022557 L208.079993,175.679414 L234.828402,175.679414 Z M188.907409,225.022557 C183.439134,221.609261 178.53844,215.878962 175.116287,210.386458 C169.43466,201.265693 164.524471,187.957879 162.159,175.679414 L188.907409,175.679414 L188.907409,225.022557 Z" id="path7950-copy" fill="#FF6363"></path>
                </g>
            </g>
        </g>
    </g>
</svg>

<svg width="500" height="500" viewBox="0 0 500 500" xmlns="http://www.w3.org/2000/svg"><title>React-Vienna</title><g transform="translate(52 74)" fill="none" fill-rule="evenodd"><path d="M198.078 112.91c45.706 0 89.124 6.439 122.132 17.794 36.66 12.61 59.022 31.254 59.022 45.62 0 15.301-24.15 35.167-63.363 48.149-31.218 10.335-72.986 15.968-117.791 15.968-47.07 0-89.309-5.523-120.164-16.062-19.317-6.597-35.27-15.17-46.204-24.527-9.826-8.408-14.786-16.756-14.786-23.529 0-14.413 21.506-32.799 57.375-45.294 33.022-11.503 77.503-18.119 123.779-18.119zm0-16.91c-48.074 0-94.418 6.893-129.35 19.061C26.784 129.673 0 152.571 0 176.323c0 24.532 28.755 49.138 72.44 64.058 32.837 11.215 76.852 16.97 125.638 16.97 46.495 0 90.02-5.87 123.113-16.826 45.416-15.035 74.964-39.342 74.964-64.202 0-23.838-27.65-46.89-70.436-61.609C290.83 102.712 245.566 96 198.078 96z" fill="#607096" fill-rule="nonzero"/><path d="M143.258 144.255c22.833-39.562 50.106-73.927 76.44-96.827 29.247-25.431 56.582-35.473 69.036-28.297 13.267 7.644 18.425 38.473 10.09 78.9-6.636 32.184-22.618 71.152-45.001 109.935-23.515 40.743-49.404 74.544-73.956 95.988-15.37 13.425-30.772 22.95-44.347 27.74-12.197 4.304-21.913 4.428-27.785 1.044-12.496-7.2-17.69-35-10.605-72.29 6.523-34.33 23.01-76.136 46.128-116.193zm-14.66-8.448c-24.017 41.614-41.194 85.17-48.094 121.486-8.286 43.604-1.816 78.227 18.777 90.094 21.269 12.255 56.965-.342 91.724-30.701 26.128-22.821 53.106-58.044 77.478-100.272 23.227-40.245 39.882-80.852 46.917-114.971 9.653-46.822 3.342-84.542-18.211-96.961-20.667-11.909-54.466.508-88.6 30.19-27.836 24.206-56.268 60.03-79.991 101.135z" fill="#607096" fill-rule="nonzero"/><path d="M143.22 208.674c-22.9-39.524-39.076-80.296-45.78-114.53-7.444-38.018-2.5-66.697 9.943-73.894 13.254-7.667 42.56 3.264 73.449 30.67 24.592 21.817 50.397 55.113 72.846 93.86 23.582 40.702 39.96 79.995 46.293 111.959 3.964 20.01 4.53 38.1 1.904 52.243-2.36 12.709-7.104 21.18-12.97 24.574-12.485 7.222-39.184-2.164-67.977-26.922-26.507-22.791-54.522-57.942-77.708-97.96zm-14.647 8.472c24.087 41.573 53.276 78.196 81.316 102.306 33.668 28.95 66.921 40.64 87.494 28.739 21.249-12.291 28.154-49.484 19.19-94.736-6.74-34.016-23.806-74.96-48.249-117.148-23.295-40.207-50.186-74.904-76.256-98.033C156.294 6.534 120.436-6.84 98.904 5.615 78.257 17.558 72.143 53.018 80.832 97.392c7.086 36.185 23.95 78.689 47.741 119.754z" fill="#607096" fill-rule="nonzero"/><path d="M208.08 129h29.907c-.044 2.45-.315 15.928-1.103 28.214H208.08V129zm-19.173 28.214h-28.803c-.789-12.286-1.06-25.765-1.104-28.214h29.907v28.214zm45.921 18.465c-2.365 12.279-7.275 25.587-12.956 34.707-3.422 5.493-8.324 11.223-13.792 14.637v-49.344h26.748zm-45.92 49.344c-5.469-3.414-10.37-9.144-13.792-14.637-5.681-9.12-10.592-22.428-12.957-34.707h26.748v49.344z" fill="#FF6363"/></g></svg>
